X: 1
T: Marry Me Now
C: (trad.)
R: reel
Z: 2013 John Chambers <jc:trillian.mit.edu>
S: PDF image from Lance Ramshaw
S: page from Concord Slow Scottish Session collection
B: Preston's Collection of Scots Reels and Country Dances (1768)
B: The Athole Collection (1884)
M: C|
L: 1/8
K: Am
G | EA A/A/A c2ce | dcBA GABG |  AE E/E/E c2ce | dBgB A/A/A A2 :|
g | agea geae | gedg BGdB | agea geae | gegB A/A/A A |]
g | agea geae | gedg BGdB | cAdB ecae | gegB A/A/A A |]
